papirus/22x22/apps/preferences-desktop-notification-bell.svg

<svg height="22" viewBox="0 0 44 44" width="22" xmlns="http://www.w3.org/2000/svg"><g transform="translate(-1.9997008 -2)"><path d="m16 40c1.181943 2.3167 4.298514 4 8 4 3.701486 0 6.818057-1.6833 8-4z" fill="#ce903c"/><path d="m8.8149 25.576c0 8.313-10.123 14.424-1.0123 14.424h32.394c9.111 0-1.012-6.111-1.012-14.424 0-9.273-4.049-19.576-15.185-19.576-11.136 0-15.185 10.303-15.185 19.576z" fill="#efb055"/><path d="m24 6c-11.136 0-15.186 10.303-15.186 19.576.0005 6.146-5.5242 11.085-4.7281 13.244.5755-2.487 4.7286-6.905 4.7286-12.244 0-9.273 4.0495-19.576 15.186-19.576 11.1365 0 15.186 10.303 15.186 19.576 0 5.339 4.153 9.757 4.728 12.244.796-2.159-4.728-7.098-4.728-13.244 0-9.273-4.05-19.576-15.186-19.576z" fill="#fff" opacity=".1"/><path d="m4.0859 37.82c-.3207 1.386.4562 2.18 3.7168 2.18h32.394c3.261 0 4.038-.794 3.717-2.18-.281.762-1.341 1.18-3.717 1.18h-32.394c-2.3757 0-3.4363-.418-3.7171-1.18z" opacity=".3"/><path d="m16 40c1.181714 2.317 4.298286 4 8 4 3.701714 0 6.818286-1.683 8-4h-.678857c-1.473143 1.782-4.180572 3-7.321143 3-3.140571 0-5.848-1.218-7.321143-3z" opacity=".3"/></g></svg>

<?xml version="1.0" encoding="UTF-8" standalone="no"?>
<svg
   xmlns:dc="http://purl.org/dc/elements/1.1/"
   xmlns:cc="http://creativecommons.org/ns#"
   xmlns:rdf="http://www.w3.org/1999/02/22-rdf-syntax-ns#"
   xmlns:svg="http://www.w3.org/2000/svg"
   xmlns="http://www.w3.org/2000/svg"
   xmlns:sodipodi="http://sodipodi.sourceforge.net/DTD/sodipodi-0.dtd"
   xmlns:inkscape="http://www.inkscape.org/namespaces/inkscape"
   id="svg3067"
   height="22"
   width="22"
   version="1.1"
   viewBox="0 0 44 44"
   inkscape:version="0.91 r13725"
   sodipodi:docname="preferences-desktop-notification-bell.svg">
  <defs
     id="defs11" />
  <sodipodi:namedview
     pagecolor="#ffffff"
     bordercolor="#666666"
     borderopacity="1"
     objecttolerance="10"
     gridtolerance="10"
     guidetolerance="10"
     inkscape:pageopacity="0"
     inkscape:pageshadow="2"
     inkscape:window-width="1600"
     inkscape:window-height="849"
     id="namedview9"
     showgrid="false"
     inkscape:zoom="4.04"
     inkscape:cx="-65.490099"
     inkscape:cy="12"
     inkscape:window-x="0"
     inkscape:window-y="0"
     inkscape:window-maximized="1"
     inkscape:current-layer="svg3067" />
  <metadata
     id="metadata3077">
    <rdf:RDF>
      <cc:Work
         rdf:about="">
        <dc:format>image/svg+xml</dc:format>
        <dc:type
           rdf:resource="http://purl.org/dc/dcmitype/StillImage" />
        <dc:title></dc:title>
      </cc:Work>
    </rdf:RDF>
  </metadata>
  <g
     id="g4138"
     transform="translate(-1.9997008,-2)">
    <path
       d="m 16,40 c 1.181943,2.3167 4.298514,4 8,4 3.701486,0 6.818057,-1.6833 8,-4 l -16,0 z"
       id="path4135"
       inkscape:connector-curvature="0"
       style="fill:#ce903c" />
    <g
       id="g4151">
      <path
         style="fill:#efb055"
         inkscape:connector-curvature="0"
         id="path4137"
         d="M 8.8149,25.576 C 8.8149,33.889 -1.3081,40 7.8026,40 l 32.394,0 c 9.111,0 -1.012,-6.111 -1.012,-14.424 C 39.1846,16.303 35.1356,6 23.9996,6 12.8636,6 8.8146,16.303 8.8146,25.576 Z" />
      <path
         style="opacity:0.1;fill:#ffffff"
         inkscape:connector-curvature="0"
         id="path4148"
         d="M 24,6 C 12.864,6 8.814,16.303 8.814,25.576 8.8145,31.722 3.2898,36.661 4.0859,38.82 4.6614,36.333 8.8145,31.915 8.8145,26.576 8.8145,17.303 12.864,7 24.0005,7 c 11.1365,0 15.186,10.303 15.186,19.576 0,5.339 4.153,9.757 4.728,12.244 0.796,-2.159 -4.728,-7.098 -4.728,-13.244 C 39.1865,16.303 35.1365,6 24.0005,6 Z" />
      <path
         style="opacity:0.3"
         inkscape:connector-curvature="0"
         id="path4153"
         d="M 4.0859,37.82 C 3.7652,39.206 4.5421,40 7.8027,40 l 32.394,0 c 3.261,0 4.038,-0.794 3.717,-2.18 -0.281,0.762 -1.341,1.18 -3.717,1.18 L 7.8027,39 C 5.427,39 4.3664,38.582 4.0856,37.82 Z" />
    </g>
    <path
       d="m 16,40 c 1.181714,2.317 4.298286,4 8,4 3.701714,0 6.818286,-1.683 8,-4 l -0.678857,0 C 29.848,41.782 27.140571,43 24,43 20.859429,43 18.152,41.782 16.678857,40 L 16,40 Z"
       id="path4158"
       inkscape:connector-curvature="0"
       style="opacity:0.3" />
  </g>
</svg>
